vsi/list-flat_light.svg

<svg viewBox="0 0 16 16" fill="none" xmlns="http://www.w3.org/2000/svg" height="1em" width="1em">
  <path d="M2.00024 10V9H14.0002V10H2.00024ZM2.00024 6H14.0002V7H2.00024V6ZM14.0002 3V4H2.00024V3H14.0002Z" fill="#424242"/>
  <path d="M2.00024 12V13H14.0002V12H2.00024Z" fill="#424242"/>
</svg>

<svg viewBox="0 0 16 16" fill="none" xmlns="http://www.w3.org/2000/svg" height="1em" width="1em">
  <path d="M2 10V9h12v1H2Zm0-4h12v1H2V6Zm12-3v1H2V3h12ZM2 12v1h12v-1H2Z" fill="#424242"/>
</svg>
